packages/icons/src/assets/top-alignment.svg

<svg width="16" height="16" viewBox="0 0 16 16" fill="currentColor" xmlns="http://www.w3.org/2000/svg">
<path d="M7.93555 2.375C8.14025 2.3722 8.33305 2.47018 8.45215 2.63672L12.5977 8.43359L11.5811 9.16016L8.5752 4.95605V13.5H7.3252V5.04004L4.66113 9.00195L3.62402 8.30469L7.42578 2.65137L7.44727 2.62012C7.56315 2.46865 7.74346 2.37777 7.93555 2.375Z" fill="currentColor"/>
<path d="M15.5 2H0.5V0.75H15.5V2Z" fill="currentColor"/>
</svg>

<svg xmlns="http://www.w3.org/2000/svg" width="16" height="16" viewBox="0 0 16 16"><path d="M7.936 2.375a.63.63 0 0 1 .516.262l4.146 5.797-1.017.726-3.006-4.204V13.5h-1.25V5.04L4.661 9.002l-1.037-.697L7.426 2.65l.021-.03a.63.63 0 0 1 .489-.246M15.5 2H.5V.75h15z"/></svg>
